X:1
T:Let Me Touch Him
T:Let Me Touch Him
T:Rev. V. B. Ellis
C:Rev. V. B. Ellis
Z:All Rights Reserved
L:1/8
Q:1/4=85
M:3/4
K:Eb
V:1 treble nm="Voice"
%%MIDI program 54
V:1
"^with feeling" z4 GA |"Eb" B G3 e2 |"Ab" e4"Ab7" c2 |"Eb" B2 G4- | G4 GA | B- B3 Bc | B4 G2 | %7
w: Let me|touch Him let|me touch|Je sus|_ let me|touch Him as He|pas ses|
"Bb" F6- | F4 GA |"Eb" B4 GB |"Ab" e4"Ab7" c2 |"Eb" B2 G4- | G4 EF | G B3 G-E |"Bb7" F3 E F2 | %15
w: by|_ then when|I shall reach|out to|o thers|_ They shall|know Him they shall|live and not|
"Eb" E6- | E4 Bc |"Bb" d4"Ab/Bb" c2 |"Gm/Bb" B4 A2 |"Eb" G2 B4- | B4 Bc |"Bb" d4"Ab/Bb" c2 | %22
w: die|_ Oh to|be his|hand es|tend ed|_ reach ing|out to|
"Gm/Bb" B4"Bb9" c2 |"Eb" B6- | B4"Ab" ee | e e3 e2 | e4"Ab7" c2 |"Eb" B2 G4- | G4 EF | G B3 G2 | %30
w: the op|pressed|_ let me|touch Him let|me touch|Je sus|_ so that|o thers may|
"Bb7" F3 E F2 |"Eb" E6- | E4 GA |"Eb" B G3 e2 |"Ab" e4"Ab7" c2 |"Eb" B2 G4- | G4 GA | B- B3 Bc | %38
w: know and be|blessed.|_ I was|stray ing so|far from|Je sus|_ I was|lone ly had no|
 B4 G2 |"Bb" F6- | F4 GA |"Eb" B4 GB |"Ab" e4"Ab7" c2 |"Eb" B2 G4- | G4 EF | G B3 G-E | %46
w: peace with|in|_ the the|hand of my|Sav ior|touched me|_ now I'm|reach ing to _|
"Bb7" F3 E F2 |"Eb" E6 | E4 Bc |"Bb" d4"Ab/Bb" c2 |"Gm/Bb" B4 A2 |"Eb" G2 B4- | B4 Bc | %53
w: oth ers in|sin|_ Oh to|be his|hand es|tend ed|_ reach ing|
"Bb" d4"Ab/Bb" c2 |"Gm/Bb" B4"Bb9" c2 |"Eb" B6- | B4"Ab" ee | e e3 e2 | e4"Ab7" c2 |"Eb" B2 G4- | %60
w: out to|the op|pressed|_ let me|touch Him let|me touch|Je sus|
 G4 EF | G B3 G2 |"Bb7" F3 E F2 |"Eb" E6- | E4 GA |"Eb" B G3 e2 |"Ab" e4"Ab7" c2 |"Eb" B2 G4- | %68
w: _ so that|o thers may|know and be|blessed.|_ There's a|riv er a|riv er|flow ing|
 G4 GA | B- B3 Bc | B4 G2 |"Bb" F6- | F4 GA |"Eb" B4 GB |"Ab" e4"Ab7" c2 |"Eb" B2 G4- | G4 EF | %77
w: _ from with|in _ and to|cleanse the|soul|_ and the|flow sets my|life to|glow ing|_ Ho ly|
 G B3 G-E |"Bb7" F3 E F2 |"Eb" E6 | E4 Bc |"Bb" d4"Ab/Bb" c2 |"Gm/Bb" B4 A2 |"Eb" G2 B4- | B4 Bc | %85
w: Spir it more than|sil ver and|gold|_ Oh to|be his|hand es|tend ed|_ reach ing|
"Bb" d4"Ab/Bb" c2 |"Gm/Bb" B4"Bb9" c2 |"Eb" B6- | B4"Ab" ee | e e3 e2 | e4"Ab7" c2 |"Eb" B2 G4- | %92
w: out to|the op|pressed|_ let me|touch Him let|me touch|Je sus|
 G4 EF | G B3 G2 |"Bb7" F3 E F2 |"Eb" E6- | E6 |] %97
w: _ so that|o thers may|know and be|blessed.|_|

